static/icons/external-link.svg

<svg height="16" viewBox="0 0 16 16" width="16" xmlns="http://www.w3.org/2000/svg">
    <path d="m9 2v1h3.292969l-6.269531 6.273438.703125.703125 6.273437-6.269532v3.292969h1v-5zm-5 2c-1.105469 0-2 .894531-2 2v6c0 1.105469.894531 2 2 2h6c1.105469 0 2-.894531 2-2v-5l-1 1v4c0 .550781-.449219 1-1 1h-6c-.550781 0-1-.449219-1-1v-6c0-.550781.449219-1 1-1h4l1-1z"/>
</svg>

<svg fill="#000000" xmlns="http://www.w3.org/2000/svg" viewBox="0 0 16 16" width="16px" height="16px"><path d="M 9 2 L 9 3 L 12.292969 3 L 6.023438 9.273438 L 6.726563 9.976563 L 13 3.707031 L 13 7 L 14 7 L 14 2 Z M 4 4 C 2.894531 4 2 4.894531 2 6 L 2 12 C 2 13.105469 2.894531 14 4 14 L 10 14 C 11.105469 14 12 13.105469 12 12 L 12 7 L 11 8 L 11 12 C 11 12.550781 10.550781 13 10 13 L 4 13 C 3.449219 13 3 12.550781 3 12 L 3 6 C 3 5.449219 3.449219 5 4 5 L 8 5 L 9 4 Z"/></svg>
